Simply-Blue-Circles/scalable/devices/audio-card.svg

<svg xmlns="http://www.w3.org/2000/svg" width="48" height="48" viewBox="0 0 12.7 12.7"><path d="M6.34.07a6.29 6.29 0 0 0-6.29 6.3 6.29 6.29 0 0 0 6.3 6.28 6.29 6.29 0 0 0 6.28-6.29A6.29 6.29 0 0 0 6.34.07zm-.01.94a5.4 5.4 0 0 1 5.4 5.4 5.4 5.4 0 0 1-5.4 5.41 5.4 5.4 0 0 1-5.41-5.4A5.4 5.4 0 0 1 6.32 1zM4.77 2.64a.26.26 0 0 0-.01 0c-.2-.02-.1.2-.12.32v4.9c-.03.16-.21.13-.32.1-.7-.07-1.46.41-1.56 1.14-.1.54.45 1 .96.96.71-.04 1.28-.76 1.19-1.47V4.63c.02-.14.21-.15.3-.06.65.38 1.23 1 1.29 1.79.02.15-.02.54-.01.55a2.5 2.5 0 0 0-.66-2.44 3.4 3.4 0 0 1-.96-1.81.26.26 0 0 0-.1-.02zm2.51.02a.13.13 0 0 0-.13.13v7.07c0 .08.06.14.14.14h.41c.08 0 .14-.06.14-.14V8.58l.04.01H8.9c.09 0 .17-.08.17-.17V7.15c0-.1-.08-.17-.17-.17H7.84v-1.3l.04.02H8.9c.09 0 .17-.08.17-.18V4.25c0-.1-.08-.17-.17-.17H7.88l-.04.01v-.76h1.7c.07 0 .13-.06.13-.14v-.4a.13.13 0 0 0-.13-.13H7.29zm.6 1.9h.73c.04 0 .07.03.07.07v.51c0 .04-.03.07-.07.07h-.73a.07.07 0 0 1-.06-.07v-.5c0-.05.03-.08.06-.08zm0 2.9h.73c.04 0 .07.03.07.07v.5c0 .05-.03.08-.07.08h-.73a.07.07 0 0 1-.06-.07v-.51c0-.04.03-.07.06-.07z" fill="#2c89a0"/></svg>

<?xml version="1.0" encoding="UTF-8" standalone="no"?>
<svg
   xmlns:dc="http://purl.org/dc/elements/1.1/"
   xmlns:cc="http://creativecommons.org/ns#"
   xmlns:rdf="http://www.w3.org/1999/02/22-rdf-syntax-ns#"
   xmlns:svg="http://www.w3.org/2000/svg"
   xmlns="http://www.w3.org/2000/svg"
   xmlns:sodipodi="http://sodipodi.sourceforge.net/DTD/sodipodi-0.dtd"
   xmlns:inkscape="http://www.inkscape.org/namespaces/inkscape"
   width="48"
   height="48"
   viewBox="0 0 12.7 12.7"
   version="1.1"
   id="svg4"
   sodipodi:docname="audio-card.svg"
   inkscape:version="0.92.4 (5da689c313, 2019-01-14)">
  <metadata
     id="metadata10">
    <rdf:RDF>
      <cc:Work
         rdf:about="">
        <dc:format>image/svg+xml</dc:format>
        <dc:type
           rdf:resource="http://purl.org/dc/dcmitype/StillImage" />
        <dc:title></dc:title>
      </cc:Work>
    </rdf:RDF>
  </metadata>
  <defs
     id="defs8" />
  <sodipodi:namedview
     pagecolor="#ffffff"
     bordercolor="#666666"
     borderopacity="1"
     objecttolerance="10"
     gridtolerance="10"
     guidetolerance="10"
     inkscape:pageopacity="0"
     inkscape:pageshadow="2"
     inkscape:window-width="1087"
     inkscape:window-height="480"
     id="namedview6"
     showgrid="false"
     inkscape:zoom="4.9166667"
     inkscape:cx="2.1355932"
     inkscape:cy="24"
     inkscape:window-x="0"
     inkscape:window-y="25"
     inkscape:window-maximized="0"
     inkscape:current-layer="svg4" />
  <path
     d="M 6.34,0.07 A 6.29,6.29 0 0 0 0.05,6.37 6.29,6.29 0 0 0 6.35,12.65 6.29,6.29 0 0 0 12.63,6.36 6.29,6.29 0 0 0 6.34,0.07 Z M 6.33,1.01 a 5.4,5.4 0 0 1 5.4,5.4 5.4,5.4 0 0 1 -5.4,5.41 A 5.4,5.4 0 0 1 0.92,6.42 5.4,5.4 0 0 1 6.32,1 Z M 4.77,2.64 a 0.26,0.26 0 0 0 -0.01,0 C 4.56,2.62 4.66,2.84 4.64,2.96 v 4.9 C 4.61,8.02 4.43,7.99 4.32,7.96 3.62,7.89 2.86,8.37 2.76,9.1 2.66,9.64 3.21,10.1 3.72,10.06 4.43,10.02 5,9.3 4.91,8.59 V 4.63 C 4.93,4.49 5.12,4.48 5.21,4.57 5.86,4.95 6.44,5.57 6.5,6.36 6.52,6.51 6.48,6.9 6.49,6.91 A 2.5,2.5 0 0 0 5.83,4.47 3.4,3.4 0 0 1 4.87,2.66 0.26,0.26 0 0 0 4.77,2.64 Z M 7.28,2.66 A 0.13,0.13 0 0 0 7.15,2.79 V 9.86 C 7.15,9.94 7.21,10 7.29,10 H 7.7 C 7.78,10 7.84,9.94 7.84,9.86 V 8.58 L 7.88,8.59 H 8.9 c 0.09,0 0.17,-0.08 0.17,-0.17 V 7.15 C 9.07,7.05 8.99,6.98 8.9,6.98 H 7.84 V 5.68 L 7.88,5.7 H 8.9 C 8.99,5.7 9.07,5.62 9.07,5.52 V 4.25 C 9.07,4.15 8.99,4.08 8.9,4.08 H 7.88 L 7.84,4.09 V 3.33 h 1.7 c 0.07,0 0.13,-0.06 0.13,-0.14 V 2.79 A 0.13,0.13 0 0 0 9.54,2.66 H 7.29 Z m 0.6,1.9 h 0.73 c 0.04,0 0.07,0.03 0.07,0.07 v 0.51 c 0,0.04 -0.03,0.07 -0.07,0.07 H 7.88 A 0.07,0.07 0 0 1 7.82,5.14 v -0.5 c 0,-0.05 0.03,-0.08 0.06,-0.08 z m 0,2.9 h 0.73 c 0.04,0 0.07,0.03 0.07,0.07 v 0.5 c 0,0.05 -0.03,0.08 -0.07,0.08 H 7.88 A 0.07,0.07 0 0 1 7.82,8.04 V 7.53 c 0,-0.04 0.03,-0.07 0.06,-0.07 z"
     id="path2"
     inkscape:connector-curvature="0"
     style="fill:#2c89a0" />
</svg>
